src/assets/insta.svg

<svg width="16" height="17" viewBox="0 0 16 17" fill="none" xmlns="http://www.w3.org/2000/svg">
<path d="M8.00303 4.90635C6.01553 4.90635 4.4124 6.50947 4.4124 8.49697C4.4124 10.4845 6.01553 12.0876 8.00303 12.0876C9.99053 12.0876 11.5937 10.4845 11.5937 8.49697C11.5937 6.50947 9.99053 4.90635 8.00303 4.90635ZM8.00303 10.8313C6.71865 10.8313 5.66865 9.78447 5.66865 8.49697C5.66865 7.20947 6.71553 6.1626 8.00303 6.1626C9.29053 6.1626 10.3374 7.20947 10.3374 8.49697C10.3374 9.78447 9.2874 10.8313 8.00303 10.8313ZM12.578 4.75947C12.578 5.2251 12.203 5.59697 11.7405 5.59697C11.2749 5.59697 10.903 5.22197 10.903 4.75947C10.903 4.29697 11.278 3.92197 11.7405 3.92197C12.203 3.92197 12.578 4.29697 12.578 4.75947ZM14.9562 5.60947C14.903 4.4876 14.6468 3.49385 13.8249 2.6751C13.0062 1.85635 12.0124 1.6001 10.8905 1.54385C9.73428 1.47822 6.26865 1.47822 5.1124 1.54385C3.99365 1.59697 2.9999 1.85322 2.17803 2.67197C1.35615 3.49072 1.10303 4.48447 1.04678 5.60635C0.981152 6.7626 0.981152 10.2282 1.04678 11.3845C1.0999 12.5063 1.35615 13.5001 2.17803 14.3188C2.9999 15.1376 3.99053 15.3938 5.1124 15.4501C6.26865 15.5157 9.73428 15.5157 10.8905 15.4501C12.0124 15.397 13.0062 15.1407 13.8249 14.3188C14.6437 13.5001 14.8999 12.5063 14.9562 11.3845C15.0218 10.2282 15.0218 6.76572 14.9562 5.60947ZM13.4624 12.6251C13.2187 13.2376 12.7468 13.7095 12.1312 13.9563C11.2093 14.322 9.02178 14.2376 8.00303 14.2376C6.98428 14.2376 4.79365 14.3188 3.8749 13.9563C3.2624 13.7126 2.79053 13.2407 2.54365 12.6251C2.17803 11.7032 2.2624 9.51572 2.2624 8.49697C2.2624 7.47822 2.18115 5.2876 2.54365 4.36885C2.7874 3.75635 3.25928 3.28447 3.8749 3.0376C4.79678 2.67197 6.98428 2.75635 8.00303 2.75635C9.02178 2.75635 11.2124 2.6751 12.1312 3.0376C12.7437 3.28135 13.2155 3.75322 13.4624 4.36885C13.828 5.29072 13.7437 7.47822 13.7437 8.49697C13.7437 9.51572 13.828 11.7063 13.4624 12.6251Z" fill="white"/>
</svg>

<svg xmlns="http://www.w3.org/2000/svg" width="16" height="17" fill="none" viewBox="0 0 16 17"><path fill="#fff" d="M8.003 4.906a3.585 3.585 0 0 0-3.59 3.591 3.585 3.585 0 0 0 3.59 3.59 3.585 3.585 0 0 0 3.59-3.59 3.585 3.585 0 0 0-3.59-3.59m0 5.925a2.34 2.34 0 0 1-2.334-2.334 2.337 2.337 0 0 1 2.334-2.334 2.337 2.337 0 0 1 2.334 2.334 2.34 2.34 0 0 1-2.334 2.334m4.575-6.072a.836.836 0 0 1-.837.838.838.838 0 1 1 .837-.837m2.378.85c-.053-1.121-.31-2.115-1.131-2.934-.819-.819-1.813-1.075-2.934-1.131-1.157-.066-4.622-.066-5.779 0-1.118.053-2.112.31-2.934 1.128-.822.819-1.075 1.812-1.131 2.934-.066 1.157-.066 4.622 0 5.778.053 1.122.31 2.116 1.131 2.935.822.819 1.813 1.075 2.934 1.131 1.157.066 4.622.066 5.778 0 1.122-.053 2.116-.31 2.935-1.131.819-.819 1.075-1.813 1.131-2.935.066-1.156.066-4.618 0-5.775m-1.494 7.016a2.36 2.36 0 0 1-1.33 1.331c-.923.366-3.11.282-4.129.282s-3.21.08-4.128-.282a2.36 2.36 0 0 1-1.331-1.33c-.366-.923-.282-3.11-.282-4.129s-.08-3.21.282-4.128a2.36 2.36 0 0 1 1.33-1.331c.923-.366 3.11-.282 4.129-.282s3.21-.08 4.128.282a2.36 2.36 0 0 1 1.331 1.33c.366.923.282 3.11.282 4.129s.084 3.21-.282 4.128"/></svg>
